src/assets/images/about/svg/processor.svg

<svg width="140" height="140" viewBox="0 0 140 140" fill="none" xmlns="http://www.w3.org/2000/svg">
<path d="M55.5838 49C53.7114 49.1291 51.5228 50.3234 50.2475 51.8787C49.084 53.2897 48.127 55.3853 48.5001 57.4218C50.546 57.4852 52.6599 56.2624 53.8848 54.6809C55.0306 53.2087 55.8977 51.1262 55.5838 49Z" fill="url(#paint0_linear_149_86)"/>
<path d="M62.9837 60.7427C61.1858 58.4961 58.6593 57.1924 56.2731 57.1924C53.1231 57.1924 51.7907 58.6952 49.6022 58.6952C47.3456 58.6952 45.6312 57.1968 42.907 57.1968C40.2311 57.1968 37.3819 58.8264 35.5753 61.6133C33.0355 65.5376 33.4702 72.916 37.586 79.2006C39.0589 81.4494 41.0258 83.9781 43.5985 84C45.888 84.0219 46.5334 82.5366 49.6351 82.5212C52.7368 82.5037 53.3251 84.0197 55.6102 83.9956C58.1851 83.9759 60.2595 81.1738 61.7324 78.925C62.7883 77.3128 63.1812 76.5013 64 74.6813C58.0446 72.4216 57.0897 63.9823 62.9837 60.7427Z" fill="url(#paint1_linear_149_86)"/>
<path d="M35 122V134" stroke="url(#paint2_linear_149_86)" stroke-width="3" stroke-linecap="round"/>
<path d="M49 122V134" stroke="url(#paint3_linear_149_86)" stroke-width="3" stroke-linecap="round"/>
<path d="M63 122V134" stroke="url(#paint4_linear_149_86)" stroke-width="3" stroke-linecap="round"/>
<path d="M77 122V134" stroke="url(#paint5_linear_149_86)" stroke-width="3" stroke-linecap="round"/>
<path d="M91 122V134" stroke="url(#paint6_linear_149_86)" stroke-width="3" stroke-linecap="round"/>
<path d="M105 122V134" stroke="url(#paint7_linear_149_86)" stroke-width="3" stroke-linecap="round"/>
<path d="M6 105H18" stroke="url(#paint8_linear_149_86)" stroke-width="3" stroke-linecap="round"/>
<path d="M6 91H18" stroke="url(#paint9_linear_149_86)" stroke-width="3" stroke-linecap="round"/>
<path d="M6 77H18" stroke="url(#paint10_linear_149_86)" stroke-width="3" stroke-linecap="round"/>
<path d="M6 63H18" stroke="url(#paint11_linear_149_86)" stroke-width="3" stroke-linecap="round"/>
<path d="M6 49H18" stroke="url(#paint12_linear_149_86)" stroke-width="3" stroke-linecap="round"/>
<path d="M6 35H18" stroke="url(#paint13_linear_149_86)" stroke-width="3" stroke-linecap="round"/>
<path d="M122 105H134" stroke="url(#paint14_linear_149_86)" stroke-width="3" stroke-linecap="round"/>
<path d="M122 91H134" stroke="url(#paint15_linear_149_86)" stroke-width="3" stroke-linecap="round"/>
<path d="M122 77H134" stroke="url(#paint16_linear_149_86)" stroke-width="3" stroke-linecap="round"/>
<path d="M122 63H134" stroke="url(#paint17_linear_149_86)" stroke-width="3" stroke-linecap="round"/>
<path d="M122 49H134" stroke="url(#paint18_linear_149_86)" stroke-width="3" stroke-linecap="round"/>
<path d="M122 35H134" stroke="url(#paint19_linear_149_86)" stroke-width="3" stroke-linecap="round"/>
<path d="M35 6V18" stroke="url(#paint20_linear_149_86)" stroke-width="3" stroke-linecap="round"/>
<path d="M49 6V18" stroke="url(#paint21_linear_149_86)" stroke-width="3" stroke-linecap="round"/>
<path d="M63 6V18" stroke="url(#paint22_linear_149_86)" stroke-width="3" stroke-linecap="round"/>
<path d="M77 6V18" stroke="url(#paint23_linear_149_86)" stroke-width="3" stroke-linecap="round"/>
<path d="M91 6V18" stroke="url(#paint24_linear_149_86)" stroke-width="3" stroke-linecap="round"/>
<path d="M105 6V18" stroke="url(#paint25_linear_149_86)" stroke-width="3" stroke-linecap="round"/>
<rect x="19.5" y="19.5" width="101" height="101" rx="5.5" stroke="url(#paint26_linear_149_86)" stroke-width="3"/>
<path d="M96.0414 60.484L90.3854 80H87.5294L82.9934 64.292L78.2894 80L75.4614 80.028L70.0014 60.484H72.7174L76.9734 77.032L81.6774 60.484H84.5334L89.0134 76.976L93.2974 60.484H96.0414ZM97.7378 62.08V59.756H103.002V80H100.426V62.08H97.7378Z" fill="url(#paint27_linear_149_86)"/>
<defs>
<linearGradient id="paint0_linear_149_86" x1="47.0754" y1="59.6012" x2="57.6748" y2="57.5664" gradientUnits="userSpaceOnUse">
<stop stop-color="#48C8FF"/>
<stop offset="1" stop-color="#FF5BCB"/>
</linearGradient>
<linearGradient id="paint1_linear_149_86" x1="28.4286" y1="90.928" x2="71.339" y2="80.1875" gradientUnits="userSpaceOnUse">
<stop stop-color="#48C8FF"/>
<stop offset="1" stop-color="#FF5BCB"/>
</linearGradient>
<linearGradient id="paint2_linear_149_86" x1="34.8143" y1="137.101" x2="36.3337" y2="137.073" gradientUnits="userSpaceOnUse">
<stop stop-color="#48C8FF"/>
<stop offset="1" stop-color="#FF5BCB"/>
</linearGradient>
<linearGradient id="paint3_linear_149_86" x1="48.8143" y1="137.101" x2="50.3337" y2="137.073" gradientUnits="userSpaceOnUse">
<stop stop-color="#48C8FF"/>
<stop offset="1" stop-color="#FF5BCB"/>
</linearGradient>
<linearGradient id="paint4_linear_149_86" x1="62.8143" y1="137.101" x2="64.3337" y2="137.073" gradientUnits="userSpaceOnUse">
<stop stop-color="#48C8FF"/>
<stop offset="1" stop-color="#FF5BCB"/>
</linearGradient>
<linearGradient id="paint5_linear_149_86" x1="76.8143" y1="137.101" x2="78.3337" y2="137.073" gradientUnits="userSpaceOnUse">
<stop stop-color="#48C8FF"/>
<stop offset="1" stop-color="#FF5BCB"/>
</linearGradient>
<linearGradient id="paint6_linear_149_86" x1="90.8143" y1="137.101" x2="92.3337" y2="137.073" gradientUnits="userSpaceOnUse">
<stop stop-color="#48C8FF"/>
<stop offset="1" stop-color="#FF5BCB"/>
</linearGradient>
<linearGradient id="paint7_linear_149_86" x1="104.814" y1="137.101" x2="106.334" y2="137.073" gradientUnits="userSpaceOnUse">
<stop stop-color="#48C8FF"/>
<stop offset="1" stop-color="#FF5BCB"/>
</linearGradient>
<linearGradient id="paint8_linear_149_86" x1="21.1011" y1="105.186" x2="21.0728" y2="103.666" gradientUnits="userSpaceOnUse">
<stop stop-color="#48C8FF"/>
<stop offset="1" stop-color="#FF5BCB"/>
</linearGradient>
<linearGradient id="paint9_linear_149_86" x1="21.1011" y1="91.1857" x2="21.0728" y2="89.6663" gradientUnits="userSpaceOnUse">
<stop stop-color="#48C8FF"/>
<stop offset="1" stop-color="#FF5BCB"/>
</linearGradient>
<linearGradient id="paint10_linear_149_86" x1="21.1011" y1="77.1857" x2="21.0728" y2="75.6663" gradientUnits="userSpaceOnUse">
<stop stop-color="#48C8FF"/>
<stop offset="1" stop-color="#FF5BCB"/>
</linearGradient>
<linearGradient id="paint11_linear_149_86" x1="21.1011" y1="63.1857" x2="21.0728" y2="61.6663" gradientUnits="userSpaceOnUse">
<stop stop-color="#48C8FF"/>
<stop offset="1" stop-color="#FF5BCB"/>
</linearGradient>
<linearGradient id="paint12_linear_149_86" x1="21.1011" y1="49.1857" x2="21.0728" y2="47.6663" gradientUnits="userSpaceOnUse">
<stop stop-color="#48C8FF"/>
<stop offset="1" stop-color="#FF5BCB"/>
</linearGradient>
<linearGradient id="paint13_linear_149_86" x1="21.1011" y1="35.1857" x2="21.0728" y2="33.6663" gradientUnits="userSpaceOnUse">
<stop stop-color="#48C8FF"/>
<stop offset="1" stop-color="#FF5BCB"/>
</linearGradient>
<linearGradient id="paint14_linear_149_86" x1="137.101" y1="105.186" x2="137.073" y2="103.666" gradientUnits="userSpaceOnUse">
<stop stop-color="#48C8FF"/>
<stop offset="1" stop-color="#FF5BCB"/>
</linearGradient>
<linearGradient id="paint15_linear_149_86" x1="137.101" y1="91.1857" x2="137.073" y2="89.6663" gradientUnits="userSpaceOnUse">
<stop stop-color="#48C8FF"/>
<stop offset="1" stop-color="#FF5BCB"/>
</linearGradient>
<linearGradient id="paint16_linear_149_86" x1="137.101" y1="77.1857" x2="137.073" y2="75.6663" gradientUnits="userSpaceOnUse">
<stop stop-color="#48C8FF"/>
<stop offset="1" stop-color="#FF5BCB"/>
</linearGradient>
<linearGradient id="paint17_linear_149_86" x1="137.101" y1="63.1857" x2="137.073" y2="61.6663" gradientUnits="userSpaceOnUse">
<stop stop-color="#48C8FF"/>
<stop offset="1" stop-color="#FF5BCB"/>
</linearGradient>
<linearGradient id="paint18_linear_149_86" x1="137.101" y1="49.1857" x2="137.073" y2="47.6663" gradientUnits="userSpaceOnUse">
<stop stop-color="#48C8FF"/>
<stop offset="1" stop-color="#FF5BCB"/>
</linearGradient>
<linearGradient id="paint19_linear_149_86" x1="137.101" y1="35.1857" x2="137.073" y2="33.6663" gradientUnits="userSpaceOnUse">
<stop stop-color="#48C8FF"/>
<stop offset="1" stop-color="#FF5BCB"/>
</linearGradient>
<linearGradient id="paint20_linear_149_86" x1="34.8143" y1="21.1011" x2="36.3337" y2="21.0728" gradientUnits="userSpaceOnUse">
<stop stop-color="#48C8FF"/>
<stop offset="1" stop-color="#FF5BCB"/>
</linearGradient>
<linearGradient id="paint21_linear_149_86" x1="48.8143" y1="21.1011" x2="50.3337" y2="21.0728" gradientUnits="userSpaceOnUse">
<stop stop-color="#48C8FF"/>
<stop offset="1" stop-color="#FF5BCB"/>
</linearGradient>
<linearGradient id="paint22_linear_149_86" x1="62.8143" y1="21.1011" x2="64.3337" y2="21.0728" gradientUnits="userSpaceOnUse">
<stop stop-color="#48C8FF"/>
<stop offset="1" stop-color="#FF5BCB"/>
</linearGradient>
<linearGradient id="paint23_linear_149_86" x1="76.8143" y1="21.1011" x2="78.3337" y2="21.0728" gradientUnits="userSpaceOnUse">
<stop stop-color="#48C8FF"/>
<stop offset="1" stop-color="#FF5BCB"/>
</linearGradient>
<linearGradient id="paint24_linear_149_86" x1="90.8143" y1="21.1011" x2="92.3337" y2="21.0728" gradientUnits="userSpaceOnUse">
<stop stop-color="#48C8FF"/>
<stop offset="1" stop-color="#FF5BCB"/>
</linearGradient>
<linearGradient id="paint25_linear_149_86" x1="104.814" y1="21.1011" x2="106.334" y2="21.0728" gradientUnits="userSpaceOnUse">
<stop stop-color="#48C8FF"/>
<stop offset="1" stop-color="#FF5BCB"/>
</linearGradient>
<linearGradient id="paint26_linear_149_86" x1="-1.31435" y1="148.876" x2="149.23" y2="115.204" gradientUnits="userSpaceOnUse">
<stop stop-color="#48C8FF"/>
<stop offset="1" stop-color="#FF5BCB"/>
</linearGradient>
<linearGradient id="paint27_linear_149_86" x1="62.1285" y1="101.854" x2="116.265" y2="91.1867" gradientUnits="userSpaceOnUse">
<stop stop-color="#48C8FF"/>
<stop offset="1" stop-color="#FF5BCB"/>
</linearGradient>
</defs>
</svg>

<svg xmlns="http://www.w3.org/2000/svg" width="140" height="140" fill="none"><path fill="url(#a)" d="M55.584 49c-1.873.13-4.061 1.323-5.337 2.879-1.163 1.41-2.12 3.506-1.747 5.543 2.046.063 4.16-1.16 5.385-2.741 1.146-1.472 2.013-3.555 1.699-5.681Z"/><path fill="url(#b)" d="M62.984 60.743c-1.798-2.247-4.325-3.55-6.71-3.55-3.15 0-4.483 1.502-6.672 1.502-2.256 0-3.97-1.498-6.695-1.498-2.676 0-5.525 1.63-7.332 4.416-2.54 3.925-2.105 11.303 2.011 17.588 1.473 2.248 3.44 4.777 6.013 4.799 2.289.022 2.934-1.463 6.036-1.479 3.102-.017 3.69 1.499 5.975 1.475 2.575-.02 4.65-2.822 6.122-5.071 1.056-1.612 1.45-2.424 2.268-4.244-5.955-2.26-6.91-10.699-1.016-13.938Z"/><path stroke="url(#c)" stroke-linecap="round" stroke-width="3" d="M35 122v12"/><path stroke="url(#d)" stroke-linecap="round" stroke-width="3" d="M49 122v12"/><path stroke="url(#e)" stroke-linecap="round" stroke-width="3" d="M63 122v12"/><path stroke="url(#f)" stroke-linecap="round" stroke-width="3" d="M77 122v12"/><path stroke="url(#g)" stroke-linecap="round" stroke-width="3" d="M91 122v12"/><path stroke="url(#h)" stroke-linecap="round" stroke-width="3" d="M105 122v12"/><path stroke="url(#i)" stroke-linecap="round" stroke-width="3" d="M6 105h12"/><path stroke="url(#j)" stroke-linecap="round" stroke-width="3" d="M6 91h12"/><path stroke="url(#k)" stroke-linecap="round" stroke-width="3" d="M6 77h12"/><path stroke="url(#l)" stroke-linecap="round" stroke-width="3" d="M6 63h12"/><path stroke="url(#m)" stroke-linecap="round" stroke-width="3" d="M6 49h12"/><path stroke="url(#n)" stroke-linecap="round" stroke-width="3" d="M6 35h12"/><path stroke="url(#o)" stroke-linecap="round" stroke-width="3" d="M122 105h12"/><path stroke="url(#p)" stroke-linecap="round" stroke-width="3" d="M122 91h12"/><path stroke="url(#q)" stroke-linecap="round" stroke-width="3" d="M122 77h12"/><path stroke="url(#r)" stroke-linecap="round" stroke-width="3" d="M122 63h12"/><path stroke="url(#s)" stroke-linecap="round" stroke-width="3" d="M122 49h12"/><path stroke="url(#t)" stroke-linecap="round" stroke-width="3" d="M122 35h12"/><path stroke="url(#u)" stroke-linecap="round" stroke-width="3" d="M35 6v12"/><path stroke="url(#v)" stroke-linecap="round" stroke-width="3" d="M49 6v12"/><path stroke="url(#w)" stroke-linecap="round" stroke-width="3" d="M63 6v12"/><path stroke="url(#x)" stroke-linecap="round" stroke-width="3" d="M77 6v12"/><path stroke="url(#y)" stroke-linecap="round" stroke-width="3" d="M91 6v12"/><path stroke="url(#z)" stroke-linecap="round" stroke-width="3" d="M105 6v12"/><rect width="101" height="101" x="19.5" y="19.5" stroke="url(#A)" stroke-width="3" rx="5.5"/><path fill="url(#B)" d="M96.041 60.484 90.385 80H87.53l-4.536-15.708L78.29 80l-2.828.028-5.46-19.544h2.716l4.256 16.548 4.704-16.548h2.856l4.48 16.492 4.284-16.492h2.744Zm1.697 1.596v-2.324h5.264V80h-2.576V62.08h-2.688Z"/><defs><linearGradient id="a" x1="47.075" x2="57.675" y1="59.601" y2="57.566" gradientUnits="userSpaceOnUse"><stop stop-color="#48C8FF"/><stop offset="1" stop-color="#FF5BCB"/></linearGradient><linearGradient id="b" x1="28.429" x2="71.339" y1="90.928" y2="80.188" gradientUnits="userSpaceOnUse"><stop stop-color="#48C8FF"/><stop offset="1" stop-color="#FF5BCB"/></linearGradient><linearGradient id="c" x1="34.814" x2="36.334" y1="137.101" y2="137.073" gradientUnits="userSpaceOnUse"><stop stop-color="#48C8FF"/><stop offset="1" stop-color="#FF5BCB"/></linearGradient><linearGradient id="d" x1="48.814" x2="50.334" y1="137.101" y2="137.073" gradientUnits="userSpaceOnUse"><stop stop-color="#48C8FF"/><stop offset="1" stop-color="#FF5BCB"/></linearGradient><linearGradient id="e" x1="62.814" x2="64.334" y1="137.101" y2="137.073" gradientUnits="userSpaceOnUse"><stop stop-color="#48C8FF"/><stop offset="1" stop-color="#FF5BCB"/></linearGradient><linearGradient id="f" x1="76.814" x2="78.334" y1="137.101" y2="137.073" gradientUnits="userSpaceOnUse"><stop stop-color="#48C8FF"/><stop offset="1" stop-color="#FF5BCB"/></linearGradient><linearGradient id="g" x1="90.814" x2="92.334" y1="137.101" y2="137.073" gradientUnits="userSpaceOnUse"><stop stop-color="#48C8FF"/><stop offset="1" stop-color="#FF5BCB"/></linearGradient><linearGradient id="h" x1="104.814" x2="106.334" y1="137.101" y2="137.073" gradientUnits="userSpaceOnUse"><stop stop-color="#48C8FF"/><stop offset="1" stop-color="#FF5BCB"/></linearGradient><linearGradient id="i" x1="21.101" x2="21.073" y1="105.186" y2="103.666" gradientUnits="userSpaceOnUse"><stop stop-color="#48C8FF"/><stop offset="1" stop-color="#FF5BCB"/></linearGradient><linearGradient id="j" x1="21.101" x2="21.073" y1="91.186" y2="89.666" gradientUnits="userSpaceOnUse"><stop stop-color="#48C8FF"/><stop offset="1" stop-color="#FF5BCB"/></linearGradient><linearGradient id="k" x1="21.101" x2="21.073" y1="77.186" y2="75.666" gradientUnits="userSpaceOnUse"><stop stop-color="#48C8FF"/><stop offset="1" stop-color="#FF5BCB"/></linearGradient><linearGradient id="l" x1="21.101" x2="21.073" y1="63.186" y2="61.666" gradientUnits="userSpaceOnUse"><stop stop-color="#48C8FF"/><stop offset="1" stop-color="#FF5BCB"/></linearGradient><linearGradient id="m" x1="21.101" x2="21.073" y1="49.186" y2="47.666" gradientUnits="userSpaceOnUse"><stop stop-color="#48C8FF"/><stop offset="1" stop-color="#FF5BCB"/></linearGradient><linearGradient id="n" x1="21.101" x2="21.073" y1="35.186" y2="33.666" gradientUnits="userSpaceOnUse"><stop stop-color="#48C8FF"/><stop offset="1" stop-color="#FF5BCB"/></linearGradient><linearGradient id="o" x1="137.101" x2="137.073" y1="105.186" y2="103.666" gradientUnits="userSpaceOnUse"><stop stop-color="#48C8FF"/><stop offset="1" stop-color="#FF5BCB"/></linearGradient><linearGradient id="p" x1="137.101" x2="137.073" y1="91.186" y2="89.666" gradientUnits="userSpaceOnUse"><stop stop-color="#48C8FF"/><stop offset="1" stop-color="#FF5BCB"/></linearGradient><linearGradient id="q" x1="137.101" x2="137.073" y1="77.186" y2="75.666" gradientUnits="userSpaceOnUse"><stop stop-color="#48C8FF"/><stop offset="1" stop-color="#FF5BCB"/></linearGradient><linearGradient id="r" x1="137.101" x2="137.073" y1="63.186" y2="61.666" gradientUnits="userSpaceOnUse"><stop stop-color="#48C8FF"/><stop offset="1" stop-color="#FF5BCB"/></linearGradient><linearGradient id="s" x1="137.101" x2="137.073" y1="49.186" y2="47.666" gradientUnits="userSpaceOnUse"><stop stop-color="#48C8FF"/><stop offset="1" stop-color="#FF5BCB"/></linearGradient><linearGradient id="t" x1="137.101" x2="137.073" y1="35.186" y2="33.666" gradientUnits="userSpaceOnUse"><stop stop-color="#48C8FF"/><stop offset="1" stop-color="#FF5BCB"/></linearGradient><linearGradient id="u" x1="34.814" x2="36.334" y1="21.101" y2="21.073" gradientUnits="userSpaceOnUse"><stop stop-color="#48C8FF"/><stop offset="1" stop-color="#FF5BCB"/></linearGradient><linearGradient id="v" x1="48.814" x2="50.334" y1="21.101" y2="21.073" gradientUnits="userSpaceOnUse"><stop stop-color="#48C8FF"/><stop offset="1" stop-color="#FF5BCB"/></linearGradient><linearGradient id="w" x1="62.814" x2="64.334" y1="21.101" y2="21.073" gradientUnits="userSpaceOnUse"><stop stop-color="#48C8FF"/><stop offset="1" stop-color="#FF5BCB"/></linearGradient><linearGradient id="x" x1="76.814" x2="78.334" y1="21.101" y2="21.073" gradientUnits="userSpaceOnUse"><stop stop-color="#48C8FF"/><stop offset="1" stop-color="#FF5BCB"/></linearGradient><linearGradient id="y" x1="90.814" x2="92.334" y1="21.101" y2="21.073" gradientUnits="userSpaceOnUse"><stop stop-color="#48C8FF"/><stop offset="1" stop-color="#FF5BCB"/></linearGradient><linearGradient id="z" x1="104.814" x2="106.334" y1="21.101" y2="21.073" gradientUnits="userSpaceOnUse"><stop stop-color="#48C8FF"/><stop offset="1" stop-color="#FF5BCB"/></linearGradient><linearGradient id="A" x1="-1.314" x2="149.23" y1="148.876" y2="115.204" gradientUnits="userSpaceOnUse"><stop stop-color="#48C8FF"/><stop offset="1" stop-color="#FF5BCB"/></linearGradient><linearGradient id="B" x1="62.129" x2="116.265" y1="101.854" y2="91.187" gradientUnits="userSpaceOnUse"><stop stop-color="#48C8FF"/><stop offset="1" stop-color="#FF5BCB"/></linearGradient></defs></svg>
